X: 819
T: Gemim Gidiyor Baştan
C: Sadettin Kaynak
O: Turkey
F: http://compmusic.upf.edu/node/140
N: ussak--sarki--raksaksagi--gemim_gidiyor--sadettin_kaynak
N: makam= ussak
N: form= sarki
N: usul= raksaksagi = 9/8
M: 9/8
L: 1/16
K: C _2/4B   
Q: 1/4=210
%%MIDI tuningsystem comma53
B2c2 c2B2 A2A4z4 | .d4.A6 .d4 .A4  | \
w:  ARANAĞME  |   | 
B2c2 c2B2 A2A4z4 | .e4.d6 .e4 .d4  | 
w:   |   | 
e2f2 g2e2 d2d4c2 B2 | d4c4B2 c8  | B2c2 B2c2 d2B4A4 | \
w:   |   |   | 
c2 B2A2 B2G2 A4 z4  | 
w:   | 
B2c2 c2B2 A2A4z4 | .d4.A6 .d4 .A4  | \
w:  ARANAĞME  |   | 
B2c2 c2B2 A2A4z4 | .e4.d6 .e4 .d4  | 
w:   |   | 
e2f2 g2e2 d2d4c2 B2 | d4c4B2 c8  | B2c2 B2c2 d2B4A4 | \
w:   |   |   | 
c2 B2A2 B2G2 A4 z4  | 
w:   | 
B2c2 {d}c2B2 A2.A8 | .B4.A4z2 .B4 .A4  | \
w:  Ge *  *  mim  *  *  gi  |  di yor  baş tan    | 
B2c2 c2B2 A2.A8 | .B4.A4z2 .B4 .A4  | 
w:  Yel *  ken *  *  le  |  ri  ku maş tan    | 
B2c2 c2B2 A2.A8 | .B4.A4z2 .B4 .A4  | \
w:  A *  çı *  *  lıp   |  de niz le re    | 
B2c2 c2B2 A2.A8 | .B4.A4z2 .d4 d4  | 
w:  Do *  la *  *  şa  |  ca ğız  baş tan    | 
B2c2 d2.d4d2 e2d2 c2 | e2 d2c2 d2B2 .c8  | \
w:  De niz_ e ri  al  de mi ri   |  vi ra  vi ra  *  vay    | 
A2B2 c2c2 B2c2 d2B2 A2 | 
w:  Do la şa lım  *  li man la rı   | 
c2 B2A2 B2G2 A8  | B2c2 d2.d4d2 e2d2 c2 | \
w:  si ra  si ra  *  vay    |  De niz_ e ri  al  de mi ri   | 
e2 d2c2 d2B2 .c8  | A2B2 c2c2 B2c2 d2B2 A2 | 
w:  vi ra  vi ra  *  vay    |  Do la şa lım  *  li man la rı   | 
c2 B2A2 B2G2 A8  | |


